static/img/kroki/2d90c6d415a89c6210f4d011f39bcba1.svg

<?xml version="1.0" encoding="us-ascii" standalone="no"?><svg xmlns="http://www.w3.org/2000/svg" xmlns:xlink="http://www.w3.org/1999/xlink" contentStyleType="text/css" height="820px" preserveAspectRatio="none" style="width:317px;height:820px;" version="1.1" viewBox="0 0 317 820" width="317px" zoomAndPan="magnify"><defs/><g><!--class aws_cloudwatch_log_group--><g id="elem_aws_cloudwatch_log_group"><rect codeLine="23" fill="#3D176E" height="179.2734" id="aws_cloudwatch_log_group" rx="2.5" ry="2.5" style="stroke:#000D19;stroke-width:0.5;" width="303" x="7" y="633.85"/><ellipse cx="36.85" cy="653.7445" fill="#ADD1B2" rx="11" ry="11" style="stroke:#181818;stroke-width:1.0;"/><path d="M39.8188,659.3852 Q39.2406,659.682 38.6,659.8227 Q37.9594,659.9789 37.2563,659.9789 Q34.7563,659.9789 33.4281,658.3383 Q32.1156,656.682 32.1156,653.557 Q32.1156,650.432 33.4281,648.7758 Q34.7563,647.1195 37.2563,647.1195 Q37.9594,647.1195 38.6,647.2758 Q39.2563,647.432 39.8188,647.7289 L39.8188,650.4477 Q39.1938,649.8695 38.6,649.6039 Q38.0063,649.3227 37.3813,649.3227 Q36.0375,649.3227 35.35,650.4008 Q34.6625,651.4633 34.6625,653.557 Q34.6625,655.6508 35.35,656.7289 Q36.0375,657.7914 37.3813,657.7914 Q38.0063,657.7914 38.6,657.5258 Q39.1938,657.2445 39.8188,656.6664 L39.8188,659.3852 Z " fill="#000000"/><text fill="#D9B8FF" font-family="Helvetica" font-size="17" lengthAdjust="spacing" textLength="228" x="59.15" y="659.6298">aws_cloudwatch_log_group</text><line style="stroke:#000D19;stroke-width:0.5;" x1="8" x2="309" y1="673.6391" y2="673.6391"/><text fill="#D9B8FF" font-family="sans-serif" font-size="14" font-weight="bold" lengthAdjust="spacing" textLength="233" x="18" y="695.6342">group_data_protection_status</text><text fill="#D9B8FF" font-family="sans-serif" font-size="14" lengthAdjust="spacing" textLength="48" x="251" y="695.6342">: string</text><text fill="#D9B8FF" font-family="sans-serif" font-size="14" font-weight="bold" lengthAdjust="spacing" textLength="200" x="18" y="721.9311">group_metric_filter_count</text><text fill="#D9B8FF" font-family="sans-serif" font-size="14" lengthAdjust="spacing" textLength="44" x="218" y="721.9311">: int64</text><text fill="#D9B8FF" font-family="sans-serif" font-size="14" font-weight="bold" lengthAdjust="spacing" textLength="100" x="18" y="748.2279">group_policy</text><text fill="#D9B8FF" font-family="sans-serif" font-size="14" lengthAdjust="spacing" textLength="156" x="118" y="748.2279">: dictionary[string, any]</text><text fill="#D9B8FF" font-family="sans-serif" font-size="14" font-weight="bold" lengthAdjust="spacing" textLength="192" x="18" y="774.5248">group_retention_in_days</text><text fill="#D9B8FF" font-family="sans-serif" font-size="14" lengthAdjust="spacing" textLength="44" x="210" y="774.5248">: int64</text><text fill="#D9B8FF" font-family="sans-serif" font-size="14" font-weight="bold" lengthAdjust="spacing" textLength="157" x="18" y="800.8217">group_stored_bytes</text><text fill="#D9B8FF" font-family="sans-serif" font-size="14" lengthAdjust="spacing" textLength="44" x="175" y="800.8217">: int64</text></g><!--class aws_resource--><g id="elem_aws_resource"><rect codeLine="30" fill="#3D176E" height="74.0859" id="aws_resource" rx="2.5" ry="2.5" style="stroke:#000D19;stroke-width:0.5;" width="155" x="81" y="438.76"/><ellipse cx="96" cy="458.6545" fill="#ADD1B2" rx="11" ry="11" style="stroke:#181818;stroke-width:1.0;"/><path d="M98.9688,464.2952 Q98.3906,464.592 97.75,464.7327 Q97.1094,464.8889 96.4063,464.8889 Q93.9063,464.8889 92.5781,463.2483 Q91.2656,461.592 91.2656,458.467 Q91.2656,455.342 92.5781,453.6858 Q93.9063,452.0295 96.4063,452.0295 Q97.1094,452.0295 97.75,452.1858 Q98.4063,452.342 98.9688,452.6389 L98.9688,455.3577 Q98.3438,454.7795 97.75,454.5139 Q97.1563,454.2327 96.5313,454.2327 Q95.1875,454.2327 94.5,455.3108 Q93.8125,456.3733 93.8125,458.467 Q93.8125,460.5608 94.5,461.6389 Q95.1875,462.7014 96.5313,462.7014 Q97.1563,462.7014 97.75,462.4358 Q98.3438,462.1545 98.9688,461.5764 L98.9688,464.2952 Z " fill="#000000"/><text fill="#D9B8FF" font-family="Helvetica" font-size="17" lengthAdjust="spacing" textLength="113" x="115" y="464.5398">aws_resource</text><line style="stroke:#000D19;stroke-width:0.5;" x1="82" x2="235" y1="478.5491" y2="478.5491"/><text fill="#D9B8FF" font-family="sans-serif" font-size="14" font-weight="bold" lengthAdjust="spacing" textLength="26" x="92" y="500.5442">arn</text><text fill="#D9B8FF" font-family="sans-serif" font-size="14" lengthAdjust="spacing" textLength="48" x="118" y="500.5442">: string</text></g><!--class resource--><g id="elem_resource"><rect codeLine="33" fill="#3D176E" height="310.7578" id="resource" rx="2.5" ry="2.5" style="stroke:#000D19;stroke-width:0.5;" width="227" x="45" y="7"/><ellipse cx="113.75" cy="26.8945" fill="#ADD1B2" rx="11" ry="11" style="stroke:#181818;stroke-width:1.0;"/><path d="M116.7188,32.5352 Q116.1406,32.832 115.5,32.9727 Q114.8594,33.1289 114.1563,33.1289 Q111.6563,33.1289 110.3281,31.4883 Q109.0156,29.832 109.0156,26.707 Q109.0156,23.582 110.3281,21.9258 Q111.6563,20.2695 114.1563,20.2695 Q114.8594,20.2695 115.5,20.4258 Q116.1563,20.582 116.7188,20.8789 L116.7188,23.5977 Q116.0938,23.0195 115.5,22.7539 Q114.9063,22.4727 114.2813,22.4727 Q112.9375,22.4727 112.25,23.5508 Q111.5625,24.6133 111.5625,26.707 Q111.5625,28.8008 112.25,29.8789 Q112.9375,30.9414 114.2813,30.9414 Q114.9063,30.9414 115.5,30.6758 Q116.0938,30.3945 116.7188,29.8164 L116.7188,32.5352 Z " fill="#000000"/><text fill="#D9B8FF" font-family="Helvetica" font-size="17" lengthAdjust="spacing" textLength="71" x="139.25" y="32.7798">resource</text><line style="stroke:#000D19;stroke-width:0.5;" x1="46" x2="271" y1="46.7891" y2="46.7891"/><text fill="#D9B8FF" font-family="sans-serif" font-size="14" font-weight="bold" lengthAdjust="spacing" textLength="29" x="56" y="68.7842">age</text><text fill="#D9B8FF" font-family="sans-serif" font-size="14" lengthAdjust="spacing" textLength="66" x="85" y="68.7842">: duration</text><text fill="#D9B8FF" font-family="sans-serif" font-size="14" font-weight="bold" lengthAdjust="spacing" textLength="43" x="56" y="95.0811">atime</text><text fill="#D9B8FF" font-family="sans-serif" font-size="14" lengthAdjust="spacing" textLength="70" x="99" y="95.0811">: datetime</text><text fill="#D9B8FF" font-family="sans-serif" font-size="14" font-weight="bold" lengthAdjust="spacing" textLength="43" x="56" y="121.3779">ctime</text><text fill="#D9B8FF" font-family="sans-serif" font-size="14" lengthAdjust="spacing" textLength="70" x="99" y="121.3779">: datetime</text><text fill="#D9B8FF" font-family="sans-serif" font-size="14" font-weight="bold" lengthAdjust="spacing" textLength="14" x="56" y="147.6748">id</text><text fill="#D9B8FF" font-family="sans-serif" font-size="14" lengthAdjust="spacing" textLength="48" x="70" y="147.6748">: string</text><text fill="#D9B8FF" font-family="sans-serif" font-size="14" font-weight="bold" lengthAdjust="spacing" textLength="33" x="56" y="173.9717">kind</text><text fill="#D9B8FF" font-family="sans-serif" font-size="14" lengthAdjust="spacing" textLength="48" x="89" y="173.9717">: string</text><text fill="#D9B8FF" font-family="sans-serif" font-size="14" font-weight="bold" lengthAdjust="spacing" textLength="90" x="56" y="200.2686">last_access</text><text fill="#D9B8FF" font-family="sans-serif" font-size="14" lengthAdjust="spacing" textLength="66" x="146" y="200.2686">: duration</text><text fill="#D9B8FF" font-family="sans-serif" font-size="14" font-weight="bold" lengthAdjust="spacing" textLength="90" x="56" y="226.5654">last_update</text><text fill="#D9B8FF" font-family="sans-serif" font-size="14" lengthAdjust="spacing" textLength="66" x="146" y="226.5654">: duration</text><text fill="#D9B8FF" font-family="sans-serif" font-size="14" font-weight="bold" lengthAdjust="spacing" textLength="48" x="56" y="252.8623">mtime</text><text fill="#D9B8FF" font-family="sans-serif" font-size="14" lengthAdjust="spacing" textLength="70" x="104" y="252.8623">: datetime</text><text fill="#D9B8FF" font-family="sans-serif" font-size="14" font-weight="bold" lengthAdjust="spacing" textLength="43" x="56" y="279.1592">name</text><text fill="#D9B8FF" font-family="sans-serif" font-size="14" lengthAdjust="spacing" textLength="48" x="99" y="279.1592">: string</text><text fill="#D9B8FF" font-family="sans-serif" font-size="14" font-weight="bold" lengthAdjust="spacing" textLength="34" x="56" y="305.4561">tags</text><text fill="#D9B8FF" font-family="sans-serif" font-size="14" lengthAdjust="spacing" textLength="171" x="90" y="305.4561">: dictionary[string, string]</text></g><!--reverse link aws_resource to aws_cloudwatch_log_group--><g id="link_aws_resource_aws_cloudwatch_log_group"><path codeLine="45" d="M158.5,531.32 C158.5,562.93 158.5,591.97 158.5,633.43 " fill="none" id="aws_resource-backto-aws_cloudwatch_log_group" style="stroke:#FFAF37;stroke-width:2.0;"/><polygon fill="none" points="158.5,513.32,152.5,531.32,164.5,531.32,158.5,513.32" style="stroke:#FFAF37;stroke-width:2.0;"/></g><!--reverse link resource to aws_resource--><g id="link_resource_aws_resource"><path codeLine="46" d="M158.5,336.18 C158.5,381.21 158.5,408.35 158.5,438.52 " fill="none" id="resource-backto-aws_resource" style="stroke:#FFAF37;stroke-width:2.0;"/><polygon fill="none" points="158.5,318.18,152.5,336.18,164.5,336.18,158.5,318.18" style="stroke:#FFAF37;stroke-width:2.0;"/></g><!--SRC=[XPDFRzim3CNl-HG2UWiM86ctfXbsQGCCswKOrjs6Gc0asX5YImP5B_3-VFT9TcF8TjAUB3_-mFT8sNkZKM1PSIDAB7T8VkOFnbP0K8fx8dVSkiAHkCeoo6xMu-9dP_bDu15A55-m-8Li58o97tkZ3XQz5zT9wG7K8ITNMzsrPmBhGmaj9zIs0E_lcSdiQiOaZDxixh9iJ8wRNjterVeM9vWZZVI2B9TBlTgCaJUjNfsx9vxCRnIhT6cFZd4ISsBHKg-cZ4GISZBegNunupVGsjXSV4YqxrqciaW3_MaFsXqZdK7XKnlFIEYugN0xcGetTpfRduM_Ne9dAgvEmD5BLRXQ7u7LNXOkbv6kn9_PVDwUf0O6ML4OKx5nLde6hlry_Z7OK8ZQWoM6ToKpKmHxgO8dHyfOldtVGvKhZ6gYhatR3wZvsJLw9y0sppr9oE4RZOx6XX2DdpRpx0Yrt3MCIVLVCXkXTpKfRES1iadi4pP4ScoprGJHEYfioau3ndWEcZgZ6JrOIRYBeH2yM89IuVySERILkegzHfNoZ8-5JkeRC-J-mZwxvtCOTR2BJtyNYyN5gv-TuKxIx3y0]--></g></svg>

<svg xmlns="http://www.w3.org/2000/svg" width="317" height="820" viewBox="0 0 317 820"><rect width="303" height="179.273" x="7" y="633.85" fill="#3D176E" rx="2.5" ry="2.5" style="stroke:#000d19;stroke-width:.5"/><circle cx="36.85" cy="653.745" r="11" fill="#ADD1B2" style="stroke:#181818;stroke-width:1"/><path d="M39.819 659.385q-.578.297-1.219.438-.64.156-1.344.156-2.5 0-3.828-1.64-1.312-1.657-1.312-4.782t1.312-4.781q1.328-1.656 3.828-1.656.703 0 1.344.156.656.156 1.219.453v2.719q-.625-.578-1.219-.844-.594-.281-1.219-.281-1.343 0-2.031 1.078-.687 1.062-.687 3.156t.687 3.172q.688 1.062 2.031 1.062.625 0 1.219-.265.594-.281 1.219-.86z"/><text x="59.15" y="659.63" fill="#D9B8FF" font-family="Helvetica" font-size="17" textLength="228">aws_cloudwatch_log_group</text><path d="M8 673.639h301" style="stroke:#000d19;stroke-width:.5"/><text x="18" y="695.634" fill="#D9B8FF" font-family="sans-serif" font-size="14" font-weight="bold" textLength="233">group_data_protection_status</text><text x="251" y="695.634" fill="#D9B8FF" font-family="sans-serif" font-size="14" textLength="48">: string</text><text x="18" y="721.931" fill="#D9B8FF" font-family="sans-serif" font-size="14" font-weight="bold" textLength="200">group_metric_filter_count</text><text x="218" y="721.931" fill="#D9B8FF" font-family="sans-serif" font-size="14" textLength="44">: int64</text><text x="18" y="748.228" fill="#D9B8FF" font-family="sans-serif" font-size="14" font-weight="bold" textLength="100">group_policy</text><text x="118" y="748.228" fill="#D9B8FF" font-family="sans-serif" font-size="14" textLength="156">: dictionary[string, any]</text><text x="18" y="774.525" fill="#D9B8FF" font-family="sans-serif" font-size="14" font-weight="bold" textLength="192">group_retention_in_days</text><text x="210" y="774.525" fill="#D9B8FF" font-family="sans-serif" font-size="14" textLength="44">: int64</text><text x="18" y="800.822" fill="#D9B8FF" font-family="sans-serif" font-size="14" font-weight="bold" textLength="157">group_stored_bytes</text><text x="175" y="800.822" fill="#D9B8FF" font-family="sans-serif" font-size="14" textLength="44">: int64</text><rect width="155" height="74.086" x="81" y="438.76" fill="#3D176E" rx="2.5" ry="2.5" style="stroke:#000d19;stroke-width:.5"/><circle cx="96" cy="458.654" r="11" fill="#ADD1B2" style="stroke:#181818;stroke-width:1"/><path d="M98.969 464.295q-.578.297-1.219.438-.64.156-1.344.156-2.5 0-3.828-1.64-1.312-1.657-1.312-4.782t1.312-4.781q1.328-1.656 3.828-1.656.703 0 1.344.156.656.156 1.219.453v2.719q-.625-.579-1.219-.844-.594-.281-1.219-.281-1.344 0-2.031 1.078-.687 1.062-.687 3.156t.687 3.172q.688 1.062 2.031 1.062.625 0 1.219-.265.594-.281 1.219-.86z"/><text x="115" y="464.54" fill="#D9B8FF" font-family="Helvetica" font-size="17" textLength="113">aws_resource</text><path d="M82 478.549h153" style="stroke:#000d19;stroke-width:.5"/><text x="92" y="500.544" fill="#D9B8FF" font-family="sans-serif" font-size="14" font-weight="bold" textLength="26">arn</text><text x="118" y="500.544" fill="#D9B8FF" font-family="sans-serif" font-size="14" textLength="48">: string</text><rect width="227" height="310.758" x="45" y="7" fill="#3D176E" rx="2.5" ry="2.5" style="stroke:#000d19;stroke-width:.5"/><circle cx="113.75" cy="26.895" r="11" fill="#ADD1B2" style="stroke:#181818;stroke-width:1"/><path d="M116.719 32.535q-.578.297-1.219.438-.64.156-1.344.156-2.5 0-3.828-1.64-1.312-1.657-1.312-4.782t1.312-4.781q1.328-1.656 3.828-1.656.703 0 1.344.156.656.156 1.219.453v2.719q-.625-.578-1.219-.844-.594-.281-1.219-.281-1.344 0-2.031 1.078-.687 1.062-.687 3.156t.687 3.172q.688 1.062 2.031 1.062.625 0 1.219-.265.594-.281 1.219-.86z"/><text x="139.25" y="32.78" fill="#D9B8FF" font-family="Helvetica" font-size="17" textLength="71">resource</text><path d="M46 46.789h225" style="stroke:#000d19;stroke-width:.5"/><text x="56" y="68.784" fill="#D9B8FF" font-family="sans-serif" font-size="14" font-weight="bold" textLength="29">age</text><text x="85" y="68.784" fill="#D9B8FF" font-family="sans-serif" font-size="14" textLength="66">: duration</text><text x="56" y="95.081" fill="#D9B8FF" font-family="sans-serif" font-size="14" font-weight="bold" textLength="43">atime</text><text x="99" y="95.081" fill="#D9B8FF" font-family="sans-serif" font-size="14" textLength="70">: datetime</text><text x="56" y="121.378" fill="#D9B8FF" font-family="sans-serif" font-size="14" font-weight="bold" textLength="43">ctime</text><text x="99" y="121.378" fill="#D9B8FF" font-family="sans-serif" font-size="14" textLength="70">: datetime</text><text x="56" y="147.675" fill="#D9B8FF" font-family="sans-serif" font-size="14" font-weight="bold" textLength="14">id</text><text x="70" y="147.675" fill="#D9B8FF" font-family="sans-serif" font-size="14" textLength="48">: string</text><text x="56" y="173.972" fill="#D9B8FF" font-family="sans-serif" font-size="14" font-weight="bold" textLength="33">kind</text><text x="89" y="173.972" fill="#D9B8FF" font-family="sans-serif" font-size="14" textLength="48">: string</text><text x="56" y="200.269" fill="#D9B8FF" font-family="sans-serif" font-size="14" font-weight="bold" textLength="90">last_access</text><text x="146" y="200.269" fill="#D9B8FF" font-family="sans-serif" font-size="14" textLength="66">: duration</text><text x="56" y="226.565" fill="#D9B8FF" font-family="sans-serif" font-size="14" font-weight="bold" textLength="90">last_update</text><text x="146" y="226.565" fill="#D9B8FF" font-family="sans-serif" font-size="14" textLength="66">: duration</text><text x="56" y="252.862" fill="#D9B8FF" font-family="sans-serif" font-size="14" font-weight="bold" textLength="48">mtime</text><text x="104" y="252.862" fill="#D9B8FF" font-family="sans-serif" font-size="14" textLength="70">: datetime</text><text x="56" y="279.159" fill="#D9B8FF" font-family="sans-serif" font-size="14" font-weight="bold" textLength="43">name</text><text x="99" y="279.159" fill="#D9B8FF" font-family="sans-serif" font-size="14" textLength="48">: string</text><text x="56" y="305.456" fill="#D9B8FF" font-family="sans-serif" font-size="14" font-weight="bold" textLength="34">tags</text><text x="90" y="305.456" fill="#D9B8FF" font-family="sans-serif" font-size="14" textLength="171">: dictionary[string, string]</text><path fill="none" d="M158.5 531.32v102.11m0-120.11-6 18h12zm0-177.14v102.34m0-120.34-6 18h12z" style="stroke:#ffaf37;stroke-width:2"/></svg>
